X: 3395
T: I'M OFF TO CHARLESTOWN.
%R: march
B: James Kerr "Merry Melodies" v.3 p.43 #395
Z: 2016 John Chambers <jc:trillian.mit.edu>
M: 2/4
L: 1/8
K: D
A |\
AABc | df2f | fede | f3A |\
AABc | deff | edBe | A3A |\
AABc | df2f | fede | f3a |\
agfe | gfed | dcfe | dABc |
d2f>d | A2d2 | f>ed>e | f2a2 |\
f2f>e | d2d>c | B>bb>a | b3c' |\
d'2 c'2 | b2a2 | gfed | edBz |\
A2d>f | a2b2 | a>gf>e | d3 |]

%%sep 1 1 500
%%sep 1 1 500

